X:182
T: DIE GANZE WELT IST EIN ORCHESTER
N: B0669
O: Europa, Mitteleuropa, Deutschland
R: Moral - Lied, sozial - kritisch
M: 3/4
L: 1/16
K: C
G,2A,2B,2 | C6C2D2D2 | E4C4z2
E2 | D3ED2C2B,2A,2 | G,4z2
G,2A,2B,2 | C6C2D2D2 | E4C4z2
E2 | D3ED2C2B,2A,2 | G,4z2
G,2G,2G,2 | C6G,2A,2_B,2 | A,4F,4z2
C2 | B,2G,2C2G,2C2E2 | D6
G,2A,2B,2 | C6C2E2C2 | C3A,A,4z2
A,2 | G,3G,G,2G,2A,2B,2 | C4z2

